X:3
T: Das Stortebekerlied (1402)
N: A0366
O: Europa, Mitteleuropa, Deutschland
N: M. Franck, Fasciculus quodlibeticus 1615 No. 6.
R: Romanze, Ballade, Lied, Personenlied
M: 4/4
L: 1/4
K: G
 |  | c2c2 | c2cA | GABc | d2z
d | e2dd | c2cA | GABc | d2z
d | e2dd | c3c | B2A2 | G4

